images/raw_icons/category-support.svg

<?xml version="1.0" encoding="UTF-8"?>
<svg width="24px" height="24px" viewBox="0 0 24 24" version="1.1" xmlns="http://www.w3.org/2000/svg" xmlns:xlink="http://www.w3.org/1999/xlink">
    <title>Topic-Icons/12_a</title>
    <defs>
        <polygon id="path-1" points="0.0421937777 0.0264 8.0918 0.0264 8.0918 15 0.0421937777 15"></polygon>
        <polygon id="path-3" points="0 0.0264 8.04765027 0.0264 8.04765027 15 0 15"></polygon>
    </defs>
    <g id="Topic-Icons/12_a" stroke="none" stroke-width="1" fill="none" fill-rule="evenodd">
        <g id="Group-9" transform="translate(2, 2)">
            <path d="M7.4473,1.0004 C6.9063,1.0004 6.3383,1.2794 5.9263,1.7484 C5.4603,2.2804 5.2553,2.9774 5.3513,3.7074 C5.5863,5.5054 8.6093,7.9034 10.0533,8.8874 C11.4883,7.9584 14.4853,5.6504 14.7403,3.7074 C14.8363,2.9774 14.6313,2.2804 14.1633,1.7474 C13.7533,1.2794 13.1843,1.0004 12.6443,1.0004 C11.2463,1.0004 10.4603,2.1814 10.4263,2.2304 L10.0113,2.8664 L9.5893,2.2334 C9.5813,2.2224 8.7563,1.0004 7.4473,1.0004 L7.4473,1.0004 Z M10.0383,10.0734 L9.7743,9.9024 C9.5683,9.7694 4.7213,6.6034 4.3593,3.8374 C4.2253,2.8174 4.5153,1.8414 5.1763,1.0894 C5.7733,0.4074 6.6233,0.0004 7.4473,0.0004 C8.6513,0.0004 9.5273,0.6804 10.0073,1.1774 C10.4893,0.6794 11.3803,0.0004 12.6443,0.0004 C13.4683,0.0004 14.3173,0.4064 14.9153,1.0884 C15.5753,1.8404 15.8653,2.8164 15.7323,3.8374 C15.3423,6.8114 10.5113,9.7844 10.3053,9.9094 L10.0383,10.0734 Z" id="Fill-1" fill="#FFFFFF"></path>
            <g id="Group-5" transform="translate(12, 4.9648)">
                <mask id="mask-2" fill="white">
                    <use xlink:href="#path-1"></use>
                </mask>
                <g id="Clip-4"></g>
                <path d="M1.0518,14.0004 L4.0318,14.0004 L4.0418,11.8114 L6.3808,9.5764 C6.6958,9.3204 6.9038,9.0174 7.0158,8.6694 C7.0548,8.5484 7.0808,8.4234 7.0948,8.2974 L7.0498,1.5174 C7.0498,1.2454 6.8308,1.0264 6.5618,1.0264 C6.2928,1.0264 6.0738,1.2454 6.0738,1.5144 L6.0518,4.8244 C6.0628,4.8354 6.0728,4.8464 6.0818,4.8564 C6.3218,5.1244 6.4418,5.4694 6.4208,5.8274 C6.4018,6.1864 6.2418,6.5154 5.9748,6.7544 L3.6518,8.7684 L2.9968,8.0124 L5.3148,6.0034 C5.4498,5.8824 5.4618,5.6644 5.3358,5.5224 C5.2748,5.4544 5.1908,5.4134 5.0988,5.4084 C5.0058,5.4074 4.9178,5.4344 4.8498,5.4954 L1.9258,8.0484 C1.4928,8.4364 1.2808,8.7374 1.1748,9.1174 C1.1238,9.2974 1.0908,9.9374 1.0668,10.4034 L1.0558,10.5994 C1.0308,11.0544 1.0448,13.0574 1.0518,14.0004 L1.0518,14.0004 Z M5.0288,15.0004 L0.0618,15.0004 L0.0568,14.5054 C0.0558,14.3694 0.0238,11.1744 0.0578,10.5464 L0.0678,10.3524 C0.1078,9.5934 0.1368,9.1134 0.2118,8.8474 C0.3728,8.2734 0.6778,7.8254 1.2628,7.2994 L4.1878,4.7454 C4.4358,4.5244 4.7438,4.4134 5.0548,4.4074 L5.0738,1.5114 C5.0738,0.6934 5.7408,0.0264 6.5618,0.0264 C7.3818,0.0264 8.0498,0.6934 8.0498,1.5144 L8.0918,8.3474 C8.0688,8.5974 8.0278,8.7904 7.9668,8.9774 C7.7958,9.5094 7.4758,9.9774 7.0398,10.3274 L5.0398,12.2404 L5.0288,15.0004 Z" id="Fill-3" fill="#FFFFFF" mask="url(#mask-2)"></path>
            </g>
            <g id="Group-8" transform="translate(0, 4.9648)">
                <mask id="mask-4" fill="white">
                    <use xlink:href="#path-3"></use>
                </mask>
                <g id="Clip-7"></g>
                <path d="M4.0576,14.0004 L7.0366,14.0004 C7.0446,13.0574 7.0576,11.0554 7.0336,10.6004 L7.0226,10.4014 C6.9976,9.9354 6.9646,9.2954 6.9146,9.1174 C6.8076,8.7374 6.5956,8.4364 6.1586,8.0434 L3.2436,5.4994 C3.1696,5.4344 3.0656,5.4074 2.9916,5.4084 C2.8996,5.4134 2.8156,5.4544 2.7536,5.5224 C2.6266,5.6644 2.6396,5.8824 2.7806,6.0084 L5.0916,8.0124 L4.4376,8.7684 L2.1206,6.7594 C1.8466,6.5154 1.6876,6.1864 1.6676,5.8274 C1.6486,5.4694 1.7686,5.1244 2.0076,4.8564 C2.0176,4.8464 2.0276,4.8354 2.0376,4.8244 L2.0146,1.5184 C2.0146,1.2454 1.7956,1.0264 1.5276,1.0264 C1.2586,1.0264 1.0396,1.2454 1.0396,1.5144 L0.9966,8.3534 C1.0076,8.4194 1.0346,8.5464 1.0746,8.6714 C1.1846,9.0164 1.3936,9.3204 1.6766,9.5484 L4.0476,11.8114 L4.0576,14.0004 Z M8.0276,15.0004 L3.0616,15.0004 L3.0496,12.2404 L1.0176,10.2994 C0.6136,9.9764 0.2926,9.5094 0.1216,8.9764 C0.0616,8.7864 0.0216,8.5954 -0.0004,8.4054 L0.0396,1.5114 C0.0396,0.6934 0.7066,0.0264 1.5276,0.0264 C2.3476,0.0264 3.0146,0.6934 3.0146,1.5144 L3.0356,4.4084 C3.3456,4.4144 3.6566,4.5264 3.9056,4.7494 L6.8216,7.2944 C7.4116,7.8244 7.7156,8.2724 7.8776,8.8474 C7.9526,9.1134 7.9816,9.5934 8.0216,10.3494 L8.0316,10.5464 C8.0666,11.1744 8.0336,14.3694 8.0326,14.5054 L8.0276,15.0004 Z" id="Fill-6" fill="#FFFFFF" mask="url(#mask-4)"></path>
            </g>
        </g>
    </g>
</svg>

<?xml version="1.0" encoding="utf-8"?>
<!-- Generator: Adobe Illustrator 27.5.0, SVG Export Plug-In . SVG Version: 6.00 Build 0)  -->
<svg version="1.1" id="Ebene_1" xmlns="http://www.w3.org/2000/svg" xmlns:xlink="http://www.w3.org/1999/xlink" x="0px" y="0px"
	 viewBox="0 0 24 24" style="enable-background:new 0 0 24 24;" xml:space="preserve">
<style type="text/css">
	.st0{fill-rule:evenodd;clip-rule:evenodd;}
	.st1{filter:url(#Adobe_OpacityMaskFilter);}
	.st2{fill-rule:evenodd;clip-rule:evenodd;fill:#FFFFFF;}
	.st3{mask:url(#mask-2_00000059999929751844195320000007017949848204606095_);fill-rule:evenodd;clip-rule:evenodd;}
	.st4{filter:url(#Adobe_OpacityMaskFilter_00000014628348932274267800000007011661439853825408_);}
	.st5{mask:url(#mask-4_00000057835604476281121510000003401391035905093293_);fill-rule:evenodd;clip-rule:evenodd;}
</style>
<g id="Topic-Icons_x2F_12_x5F_a">
	<g id="Group-9" transform="translate(2, 2)">
		<path id="Fill-1" class="st0" d="M7.4,1C6.9,1,6.3,1.3,5.9,1.7C5.5,2.3,5.3,3,5.4,3.7c0.2,1.8,3.3,4.2,4.7,5.2
			c1.4-0.9,4.4-3.2,4.7-5.2c0.1-0.7-0.1-1.4-0.6-2c-0.4-0.5-1-0.7-1.5-0.7c-1.4,0-2.2,1.2-2.2,1.2L10,2.9L9.6,2.2
			C9.6,2.2,8.8,1,7.4,1L7.4,1z M10,10.1L9.8,9.9C9.6,9.8,4.7,6.6,4.4,3.8c-0.1-1,0.2-2,0.8-2.7C5.8,0.4,6.6,0,7.4,0
			C8.7,0,9.5,0.7,10,1.2C10.5,0.7,11.4,0,12.6,0c0.8,0,1.7,0.4,2.3,1.1c0.7,0.8,0.9,1.7,0.8,2.7c-0.4,3-5.2,5.9-5.4,6.1L10,10.1z"/>
		<g id="Group-5" transform="translate(12, 4.9648)">
			<g id="Clip-4">
			</g>
			<defs>
				<filter id="Adobe_OpacityMaskFilter" filterUnits="userSpaceOnUse" x="0" y="0" width="8" height="15">
					<feColorMatrix  type="matrix" values="1 0 0 0 0  0 1 0 0 0  0 0 1 0 0  0 0 0 1 0"/>
				</filter>
			</defs>
			
				<mask maskUnits="userSpaceOnUse" x="0" y="0" width="8" height="15" id="mask-2_00000059999929751844195320000007017949848204606095_">
				<g class="st1">
					<polygon id="path-1_00000028321616796617446470000016309329123063580063_" class="st2" points="0,0 8.1,0 8.1,15 0,15 					"/>
				</g>
			</mask>
			<path id="Fill-3" class="st3" d="M1.1,14h3l0-2.2l2.3-2.2C6.7,9.3,6.9,9,7,8.7c0-0.1,0.1-0.2,0.1-0.4l0-6.8C7,1.2,6.8,1,6.6,1
				S6.1,1.2,6.1,1.5l0,3.3c0,0,0,0,0,0c0.2,0.3,0.4,0.6,0.3,1c0,0.4-0.2,0.7-0.4,0.9l-2.3,2L3,8l2.3-2c0.1-0.1,0.1-0.3,0-0.5
				C5.3,5.5,5.2,5.4,5.1,5.4c-0.1,0-0.2,0-0.2,0.1L1.9,8C1.5,8.4,1.3,8.7,1.2,9.1c-0.1,0.2-0.1,0.8-0.1,1.3l0,0.2
				C1,11.1,1,13.1,1.1,14L1.1,14z M5,15h-5l0-0.5c0-0.1,0-3.3,0-4l0-0.2c0-0.8,0.1-1.2,0.1-1.5c0.2-0.6,0.5-1,1.1-1.5l2.9-2.6
				c0.2-0.2,0.6-0.3,0.9-0.3l0-2.9C5.1,0.7,5.7,0,6.6,0C7.4,0,8,0.7,8,1.5l0,6.8C8.1,8.6,8,8.8,8,9C7.8,9.5,7.5,10,7,10.3l-2,1.9
				L5,15z"/>
		</g>
		<g id="Group-8" transform="translate(0, 4.9648)">
			<g id="Clip-7">
			</g>
			<defs>
				
					<filter id="Adobe_OpacityMaskFilter_00000103243897325930440380000011960723456585745592_" filterUnits="userSpaceOnUse" x="0" y="0" width="8" height="15">
					<feColorMatrix  type="matrix" values="1 0 0 0 0  0 1 0 0 0  0 0 1 0 0  0 0 0 1 0"/>
				</filter>
			</defs>
			
				<mask maskUnits="userSpaceOnUse" x="0" y="0" width="8" height="15" id="mask-4_00000057835604476281121510000003401391035905093293_">
				<g style="filter:url(#Adobe_OpacityMaskFilter_00000103243897325930440380000011960723456585745592_);">
					<polygon id="path-3_00000001635016878328639470000008584587028139908773_" class="st2" points="0,0 8,0 8,15 0,15 					"/>
				</g>
			</mask>
			<path id="Fill-6" class="st5" d="M4.1,14h3c0-0.9,0-2.9,0-3.4l0-0.2C7,9.9,7,9.3,6.9,9.1C6.8,8.7,6.6,8.4,6.2,8L3.2,5.5
				C3.2,5.4,3.1,5.4,3,5.4c-0.1,0-0.2,0-0.2,0.1C2.6,5.7,2.6,5.9,2.8,6l2.3,2L4.4,8.8l-2.3-2C1.8,6.5,1.7,6.2,1.7,5.8
				c0-0.4,0.1-0.7,0.3-1c0,0,0,0,0,0l0-3.3C2,1.2,1.8,1,1.5,1C1.3,1,1,1.2,1,1.5l0,6.8c0,0.1,0,0.2,0.1,0.3C1.2,9,1.4,9.3,1.7,9.5
				L4,11.8L4.1,14z M8,15h-5l0-2.8l-2-1.9C0.6,10,0.3,9.5,0.1,9C0.1,8.8,0,8.6,0,8.4l0-6.9C0,0.7,0.7,0,1.5,0C2.3,0,3,0.7,3,1.5
				l0,2.9c0.3,0,0.6,0.1,0.9,0.3l2.9,2.5c0.6,0.5,0.9,1,1.1,1.6C8,9.1,8,9.6,8,10.3l0,0.2c0,0.6,0,3.8,0,4L8,15z"/>
		</g>
	</g>
</g>
</svg>
